; HEADER_BLOCK_START
; generated by OrcaSlicer 2.0.0 on 2025-11-13 at 22:44:38
; total layer number: 105
; filament_density: 1.24
; filament_diameter: 1.75
; max_z_height: 15.40
; HEADER_BLOCK_END

; THUMBNAIL_BLOCK_START

;
; THUMBNAIL_BLOCK_END

; external perimeters extrusion width = 0.45mm
; perimeters extrusion width = 0.45mm
; infill extrusion width = 0.45mm
; solid infill extrusion width = 0.45mm
; top infill extrusion width = 0.40mm
; support material extrusion width = 0.38mm
; first layer extrusion width = 0.42mm

; external perimeters extrusion width = 0.45mm
; perimeters extrusion width = 0.45mm
; infill extrusion width = 0.45mm
; solid infill extrusion width = 0.45mm
; top infill extrusion width = 0.40mm
; support material extrusion width = 0.38mm
; first layer extrusion width = 0.42mm

; EXECUTABLE_BLOCK_START
M73 P0 R62
M201 X500 Y500 Z100 E5000
M203 X500 Y500 Z10 E60
M204 P500 R1000 T500
M205 X8.00 Y8.00 Z0.40 E5.00 ; sets the jerk limits, mm/sec
;TYPE:Custom
G90 ; use absolute coordinates
M83 ; extruder relative mode
M140 S50 ; set final bed temp
M104 S150 ; set temporary nozzle temp to prevent oozing during homing
G4 S10 ; allow partial nozzle warmup
G28 ; home all axis
M420 S0; 
G29;
G1 Z50 F240
G1 X2 Y10 F3000
M104 S200 ; set final nozzle temp
M190 S50 ; wait for bed temp to stabilize
M109 S200 ; wait for nozzle temp to stabilize
G1 Z0.28 F240
G92 E0
G1 Y140 E10 F1500 ; prime the nozzle
G1 X2.3 F5000
G92 E0
G1 Y10 E10 F1200 ; prime the nozzle
G92 E0
G90
G21
M83 ; use relative distances for extrusion
; filament start gcode
M900 K0.02; Override pressure advance value
M106 S0
;LAYER_CHANGE
;Z:0.2
;HEIGHT:0.2
;BEFORE_LAYER_CHANGE
;0.2
G92 E0

G1 E-1 F3600
;_SET_FAN_SPEED_CHANGING_LAYER
G1 Z.4 F9000
G1 X70.934 Y90.554
G1 Z.4
M73 P1 R62
G1 Z.2
G1 E1 F2400
;TYPE:Skirt
;WIDTH:0.42
G1 F3000
G1 X72.601 Y89.306 E.06398
G1 X118.559 Y77.331 E1.45931
G1 X119.254 Y77.242 E.02151
G1 X132.519 Y77.242 E.4076
G1 X133.936 Y77.635 E.04519
G1 X134.981 Y78.763 E.04724
G1 X137.499 Y83.787 E.17267
G1 X137.716 Y84.384 E.01952
G1 X145.216 Y115.937 E.99655
G1 X145.29 Y116.574 E.0197
G1 X145.29 Y134.979 E.56555
G1 X144.484 Y136.927 E.06477
G1 X142.813 Y138.597 E.0726
G1 X140.866 Y139.404 E.06477
G1 X110.907 Y139.404 E.92054
G1 X109.068 Y138.7 E.06052
G1 X71.456 Y104.949 E1.55277
G1 X70.664 Y103.71 E.04519
G1 X70.542 Y102.9 E.0252
G1 X70.542 Y91.971 E.33579
G1 X70.924 Y90.593 E.04397
G1 X71.298 Y90.705 F9000
G1 F3000
G1 X71.31 Y90.664 E.00129
G1 X72.696 Y89.671 E.0524
G1 X118.654 Y77.696 E1.45931
G1 X119.254 Y77.62 E.01857
G1 X132.519 Y77.62 E.4076
G1 X133.826 Y78.011 E.04193
M73 P1 R61
G1 X134.644 Y78.932 E.03785
G1 X137.161 Y83.956 E.17267
G1 X137.349 Y84.471 E.01684
G1 X144.849 Y116.024 E.99655
G1 X144.913 Y116.574 E.01701
G1 X144.913 Y134.979 E.56555
G1 X144.217 Y136.66 E.0559
G1 X142.546 Y138.331 E.0726
G1 X140.866 Y139.027 E.0559
G1 X110.907 Y139.027 E.92054
G1 X109.319 Y138.419 E.05224
G1 X71.708 Y104.669 E1.55277
G1 X70.919 Y102.9 E.05953
G1 X70.919 Y91.971 E.33579
G1 X71.287 Y90.743 E.0394
; printing object E1.stl id:0 copy 0
G1 E-.7 F3600
;WIPE_START
G1 F3000
G1 X71.31 Y90.664 E-.02464
G1 X72.056 Y90.13 E-.27536
;WIPE_END
G1 Z.6 F9000
G1 X126.204 Y105.329 Z.6
G1 Z.2
G1 E1 F2400
;TYPE:Support
G1 F2100
G1 X126.39 Y105.359 E.00579
G1 X126.438 Y105.368 E.00149
G1 X126.618 Y105.412 E.0057
G1 X126.85 Y105.49 E.00751
G1 X127.072 Y105.586 E.00743
G1 X127.284 Y105.702 E.00743
G1 X127.485 Y105.837 E.00744
G1 X127.674 Y105.991 E.0075
G1 X127.709 Y106.024 E.00146
G1 X127.847 Y106.158 E.00592
G1 X127.878 Y106.195 E.00149
G1 X128.004 Y106.342 E.00593
G1 X128.116 Y106.5 E.00596
G1 X128.144 Y106.539 E.00148
G1 X128.267 Y106.748 E.00746
G1 X128.349 Y106.921 E.00589
G1 X128.369 Y106.965 E.00146
G1 X128.452 Y107.194 E.0075
G1 X128.514 Y107.428 E.00743
G1 X128.555 Y107.666 E.00743
G1 X128.574 Y107.91 E.00751
G1 X128.574 Y108.09 E.00553
G1 X128.555 Y108.334 E.00751
G1 X128.514 Y108.572 E.00743
G1 X128.452 Y108.806 E.00743
G1 X128.369 Y109.033 E.00743
G1 X128.266 Y109.252 E.00744
G1 X128.144 Y109.461 E.00743
G1 X128.004 Y109.658 E.00744
G1 X127.846 Y109.842 E.00744
G1 X127.673 Y110.01 E.00743
G1 X127.485 Y110.163 E.00744
G1 X127.284 Y110.298 E.00743
G1 X127.072 Y110.414 E.00743
G1 X126.848 Y110.511 E.0075
G1 X126.678 Y110.57 E.00553
G1 X126.441 Y110.631 E.00751
G1 X126.202 Y110.671 E.00743
G1 X125.961 Y110.688 E.00743
G1 X125.719 Y110.684 E.00743
G1 X125.479 Y110.658 E.00744
G1 X125.241 Y110.611 E.00743
G1 X125.009 Y110.543 E.00744
G1 X124.829 Y110.472 E.00594
G1 X124.785 Y110.454 E.00147
G1 X124.568 Y110.344 E.00746
G1 X124.363 Y110.216 E.00744
G1 X124.17 Y110.07 E.00743
G1 X123.991 Y109.908 E.00743
G1 X123.826 Y109.728 E.0075
G1 X123.715 Y109.586 E.00553
G1 X123.58 Y109.383 E.00751
G1 X123.465 Y109.17 E.00743
G1 X123.369 Y108.947 E.00743
G1 X123.294 Y108.717 E.00743
G1 X123.24 Y108.481 E.00744
G1 X123.208 Y108.242 E.00744
G1 X123.197 Y108 E.00743
G1 X123.208 Y107.758 E.00743
G1 X123.24 Y107.519 E.00744
G1 X123.294 Y107.283 E.00744
G1 X123.369 Y107.053 E.00743
G1 X123.465 Y106.83 E.00743
G1 X123.58 Y106.617 E.00743
G1 X123.715 Y106.414 E.00751
G1 X123.826 Y106.272 E.00553
G1 X123.991 Y106.092 E.0075
G1 X124.17 Y105.93 E.00743
G1 X124.363 Y105.784 E.00743
G1 X124.568 Y105.656 E.00743
G1 X124.784 Y105.547 E.00744
G1 X125.009 Y105.457 E.00744
G1 X125.241 Y105.389 E.00743
G1 X125.479 Y105.342 E.00743
G1 X125.72 Y105.316 E.00747
G1 X125.911 Y105.311 E.00585
G1 X125.958 Y105.311 E.00145
G1 X126.148 Y105.325 E.00586
G1 X125.952 Y110.349 F9000
G1 F2100
G1 X125.74 Y110.345 E.00649
G1 X125.53 Y110.323 E.0065
G1 X125.323 Y110.281 E.00649
G1 X125.12 Y110.221 E.00651
G1 X124.955 Y110.156 E.00545
G1 X124.925 Y110.144 E.00099
G1 X124.735 Y110.048 E.00654
G1 X124.555 Y109.937 E.0065
G1 X124.387 Y109.809 E.00649
G1 X124.23 Y109.667 E.00649
G1 X124.085 Y109.508 E.00662
G1 X123.99 Y109.388 E.00471
G1 X123.871 Y109.208 E.00663
G1 X123.771 Y109.022 E.00649
G1 X123.687 Y108.828 E.00649
G1 X123.622 Y108.627 E.00649
G1 X123.574 Y108.421 E.0065
G1 X123.546 Y108.211 E.00649
G1 X123.536 Y108 E.0065
G1 X123.546 Y107.789 E.0065
G1 X123.574 Y107.579 E.00649
G1 X123.622 Y107.373 E.0065
G1 X123.687 Y107.172 E.00649
G1 X123.771 Y106.978 E.0065
G1 X123.871 Y106.792 E.00649
G1 X123.99 Y106.612 E.00663
G1 X124.085 Y106.492 E.00471
G1 X124.23 Y106.333 E.00662
G1 X124.387 Y106.191 E.00649
G1 X124.555 Y106.063 E.00649
G1 X124.735 Y105.952 E.00649
G1 X124.924 Y105.856 E.0065
G1 X125.12 Y105.779 E.00649
G1 X125.323 Y105.719 E.00649
G1 X125.53 Y105.677 E.00649
G1 X125.742 Y105.655 E.00656
G1 X125.914 Y105.651 E.00529
G1 X125.945 Y105.651 E.00095
G1 X126.165 Y105.667 E.00679
G1 X126.332 Y105.693 E.00518
G1 X126.365 Y105.699 E.00103
G1 X126.523 Y105.739 E.00502
G1 X126.728 Y105.807 E.00664
G1 X126.922 Y105.891 E.00649
G1 X127.107 Y105.993 E.00649
G1 X127.283 Y106.11 E.00649
G1 X127.45 Y106.246 E.00661
G1 X127.473 Y106.268 E.00098
G1 X127.599 Y106.391 E.00542
G1 X127.621 Y106.416 E.00102
G1 X127.736 Y106.551 E.00544
G1 X127.84 Y106.696 E.00549
G1 X127.859 Y106.723 E.00101
G1 X127.966 Y106.907 E.00654
G1 X128.041 Y107.065 E.00536
G1 X128.054 Y107.093 E.00097
G1 X128.128 Y107.296 E.00662
G1 X128.182 Y107.5 E.00649
G1 X128.218 Y107.708 E.00649
G1 X128.235 Y107.923 E.00663
G1 X128.235 Y108.077 E.00471
G1 X128.218 Y108.292 E.00663
G1 X128.182 Y108.5 E.00649
G1 X128.128 Y108.704 E.00649
G1 X128.056 Y108.903 E.00649
G1 X127.966 Y109.094 E.0065
G1 X127.859 Y109.277 E.00649
G1 X127.736 Y109.449 E.0065
G1 X127.599 Y109.609 E.0065
G1 X127.447 Y109.756 E.00649
G1 X127.283 Y109.89 E.0065
G1 X127.107 Y110.007 E.00649
G1 X126.922 Y110.109 E.00649
G1 X126.725 Y110.195 E.00662
G1 X126.58 Y110.245 E.00471
G1 X126.371 Y110.299 E.00663
G1 X126.162 Y110.333 E.00649
G1 X125.952 Y110.349 E.00649
G1 X125.94 Y109.93 F9000
G1 F2100
G1 X125.766 Y109.927 E.00533
G1 X125.593 Y109.908 E.00533
G1 X125.423 Y109.874 E.00533
G1 X125.256 Y109.825 E.00535
G1 X125.109 Y109.767 E.00485
G1 X125.097 Y109.762 E.0004
G1 X124.94 Y109.683 E.0054
G1 X124.793 Y109.591 E.00533
G1 X124.655 Y109.486 E.00533
G1 X124.526 Y109.37 E.00533
G1 X124.404 Y109.237 E.00553
G1 X124.33 Y109.142 E.0037
G1 X124.231 Y108.992 E.00555
G1 X124.148 Y108.839 E.00533
G1 X124.08 Y108.68 E.00533
G1 X124.026 Y108.515 E.00533
G1 X123.987 Y108.345 E.00533
G1 X123.964 Y108.173 E.00533
G1 X123.956 Y108 E.00533
G1 X123.964 Y107.827 E.00533
G1 X123.987 Y107.655 E.00533
G1 X124.026 Y107.485 E.00533
G1 X124.08 Y107.32 E.00533
G1 X124.148 Y107.161 E.00533
G1 X124.231 Y107.008 E.00533
G1 X124.33 Y106.858 E.00555
G1 X124.405 Y106.763 E.0037
G1 X124.526 Y106.63 E.00553
G1 X124.655 Y106.514 E.00533
G1 X124.793 Y106.409 E.00533
G1 X124.94 Y106.317 E.00533
G1 X125.095 Y106.239 E.00534
G1 X125.257 Y106.175 E.00533
G1 X125.423 Y106.126 E.00533
G1 X125.593 Y106.092 E.00533
G1 X125.769 Y106.073 E.00543
G1 X125.919 Y106.07 E.0046
G1 X125.93 Y106.07 E.00033
G1 X126.118 Y106.084 E.00579
G1 X126.26 Y106.106 E.00442
G1 X126.274 Y106.109 E.00046
G1 X126.407 Y106.141 E.00418
G1 X126.578 Y106.198 E.00556
G1 X126.737 Y106.268 E.00533
G1 X126.89 Y106.351 E.00533
G1 X127.034 Y106.448 E.00533
G1 X127.173 Y106.561 E.00551
G1 X127.182 Y106.569 E.00038
G1 X127.294 Y106.679 E.00481
G1 X127.303 Y106.69 E.00045
G1 X127.406 Y106.809 E.00483
G1 X127.499 Y106.939 E.00491
G1 X127.507 Y106.951 E.00043
G1 X127.596 Y107.103 E.0054
G1 X127.661 Y107.241 E.00471
G1 X127.666 Y107.252 E.00037
G1 X127.728 Y107.421 E.00553
G1 X127.772 Y107.589 E.00533
G1 X127.801 Y107.76 E.00533
G1 X127.816 Y107.94 E.00554
G1 X127.816 Y108.06 E.0037
G1 X127.801 Y108.24 E.00554
G1 X127.772 Y108.411 E.00533
G1 X127.728 Y108.579 E.00533
G1 X127.668 Y108.742 E.00533
G1 X127.595 Y108.899 E.00534
G1 X127.507 Y109.049 E.00533
G1 X127.406 Y109.19 E.00533
G1 X127.293 Y109.322 E.00534
G1 X127.169 Y109.443 E.00533
G1 X127.034 Y109.552 E.00533
G1 X126.89 Y109.649 E.00533
G1 X126.737 Y109.732 E.00533
G1 X126.572 Y109.804 E.00553
G1 X126.459 Y109.843 E.0037
G1 X126.284 Y109.889 E.00554
G1 X126.113 Y109.917 E.00533
G1 X125.94 Y109.93 E.00533
G1 X125.928 Y109.51 F9000
G1 F2100
G1 X125.792 Y109.508 E.00417
G1 X125.657 Y109.494 E.00417
G1 X125.524 Y109.467 E.00417
G1 X125.393 Y109.428 E.0042
G1 X125.27 Y109.38 E.00407
G1 X125.146 Y109.317 E.00425
G1 X125.031 Y109.245 E.00417
G1 X124.922 Y109.163 E.00417
G1 X124.822 Y109.072 E.00417
G1 X124.724 Y108.966 E.00444
G1 X124.671 Y108.897 E.00268
G1 X124.59 Y108.776 E.00447
G1 X124.526 Y108.657 E.00417
G1 X124.472 Y108.532 E.00417
G1 X124.43 Y108.403 E.00417
G1 X124.4 Y108.27 E.00417
G1 X124.381 Y108.136 E.00417
G1 X124.375 Y108 E.00417
G1 X124.381 Y107.864 E.00417
G1 X124.4 Y107.73 E.00417
G1 X124.43 Y107.597 E.00417
G1 X124.472 Y107.468 E.00417
G1 X124.526 Y107.343 E.00417
G1 X124.59 Y107.224 E.00417
G1 X124.671 Y107.103 E.00447
G1 X124.724 Y107.034 E.00268
G1 X124.822 Y106.928 E.00443
G1 X124.922 Y106.836 E.00417
G1 X125.031 Y106.755 E.00417
G1 X125.146 Y106.683 E.00417
G1 X125.267 Y106.622 E.00417
G1 X125.394 Y106.572 E.00417
G1 X125.524 Y106.533 E.00417
G1 X125.657 Y106.506 E.00417
G1 X125.796 Y106.492 E.0043
G1 X125.917 Y106.489 E.0037
G1 X126.07 Y106.5 E.00473
G1 X126.186 Y106.518 E.0036
G1 X126.29 Y106.544 E.0033
G1 X126.428 Y106.59 E.00448
G1 X126.553 Y106.644 E.00417
G1 X126.672 Y106.709 E.00417
G1 X126.785 Y106.785 E.00417
G1 X126.895 Y106.875 E.00438
G1 X126.988 Y106.966 E.004
G1 X127.075 Y107.068 E.00411
G1 X127.155 Y107.179 E.00419
G1 X127.225 Y107.299 E.00427
G1 X127.279 Y107.412 E.00387
G1 X127.328 Y107.547 E.0044
G1 X127.362 Y107.678 E.00417
G1 X127.385 Y107.812 E.00417
G1 X127.397 Y107.956 E.00445
G1 X127.397 Y108.044 E.00268
G1 X127.385 Y108.188 E.00445
G1 X127.362 Y108.322 E.00417
G1 X127.328 Y108.453 E.00417
G1 X127.281 Y108.581 E.00417
G1 X127.223 Y108.704 E.00417
G1 X127.155 Y108.821 E.00417
G1 X127.076 Y108.932 E.00417
G1 X126.988 Y109.035 E.00417
G1 X126.89 Y109.129 E.00417
G1 X126.785 Y109.215 E.00417
G1 X126.672 Y109.291 E.00417
G1 X126.553 Y109.356 E.00417
G1 X126.42 Y109.413 E.00444
G1 X126.338 Y109.442 E.00268
G1 X126.197 Y109.478 E.00446
G1 X126.063 Y109.5 E.00417
G1 X125.928 Y109.51 E.00417
G1 X125.916 Y109.091 F9000
G1 F2100
G1 X125.818 Y109.089 E.00301
G1 X125.72 Y109.079 E.00301
G1 X125.624 Y109.06 E.00301
G1 X125.529 Y109.032 E.00305
G1 X125.441 Y108.997 E.00291
G1 X125.352 Y108.952 E.00308
G1 X125.268 Y108.9 E.00301
G1 X125.19 Y108.841 E.00301
G1 X125.118 Y108.775 E.00301
G1 X125.044 Y108.695 E.00334
G1 X125.011 Y108.652 E.00167
G1 X124.95 Y108.56 E.00338
G1 X124.903 Y108.474 E.00301
G1 X124.865 Y108.384 E.00301
G1 X124.834 Y108.291 E.00301
G1 X124.812 Y108.195 E.00301
G1 X124.799 Y108.098 E.00301
G1 X124.795 Y108 E.00301
G1 X124.799 Y107.902 E.00301
G1 X124.812 Y107.805 E.00301
G1 X124.834 Y107.709 E.00301
G1 X124.865 Y107.616 E.00301
G1 X124.903 Y107.526 E.00301
G1 X124.95 Y107.44 E.00301
G1 X125.011 Y107.348 E.00338
G1 X125.044 Y107.305 E.00167
G1 X125.118 Y107.225 E.00334
G1 X125.19 Y107.159 E.00301
G1 X125.268 Y107.1 E.00301
G1 X125.352 Y107.048 E.00301
G1 X125.439 Y107.004 E.00301
G1 X125.53 Y106.968 E.00301
G1 X125.624 Y106.94 E.00301
G1 X125.72 Y106.921 E.00301
G1 X125.823 Y106.91 E.00318
G1 X125.906 Y106.908 E.00254
G1 X126.022 Y106.917 E.00359
G1 X126.103 Y106.929 E.0025
G1 X126.173 Y106.947 E.00223
G1 X126.278 Y106.982 E.0034
G1 X126.368 Y107.021 E.00301
G1 X126.454 Y107.068 E.00301
G1 X126.535 Y107.123 E.00301
G1 X126.616 Y107.188 E.0032
G1 X126.682 Y107.252 E.00283
G1 X126.745 Y107.326 E.00297
G1 X126.803 Y107.407 E.00304
G1 X126.854 Y107.494 E.00313
G1 X126.892 Y107.574 E.00271
G1 X126.927 Y107.672 E.00322
G1 X126.953 Y107.767 E.00301
G1 X126.969 Y107.864 E.00301
G1 X126.978 Y107.973 E.00336
G1 X126.978 Y108.027 E.00167
G1 X126.969 Y108.136 E.00336
G1 X126.953 Y108.233 E.00301
G1 X126.927 Y108.328 E.00301
G1 X126.894 Y108.42 E.00301
G1 X126.852 Y108.509 E.00301
G1 X126.803 Y108.593 E.00301
G1 X126.746 Y108.673 E.00301
G1 X126.682 Y108.747 E.00301
G1 X126.612 Y108.816 E.00301
G1 X126.535 Y108.877 E.00301
G1 X126.454 Y108.932 E.00301
G1 X126.368 Y108.979 E.00301
G1 X126.268 Y109.023 E.00335
G1 X126.217 Y109.04 E.00167
G1 X126.111 Y109.068 E.00337
G1 X126.014 Y109.084 E.00301
G1 X125.916 Y109.091 E.00301
G1 X125.904 Y108.672 F9000
G1 F2100
G1 X125.844 Y108.671 E.00185
G1 X125.784 Y108.664 E.00185
G1 X125.725 Y108.653 E.00185
G1 X125.666 Y108.635 E.00189
G1 X125.613 Y108.614 E.00175
G1 X125.557 Y108.586 E.00192
G1 X125.506 Y108.554 E.00185
G1 X125.458 Y108.518 E.00185
G1 X125.413 Y108.477 E.00185
G1 X125.364 Y108.423 E.00225
G1 X125.351 Y108.407 E.00065
G1 X125.309 Y108.344 E.0023
G1 X125.281 Y108.291 E.00185
G1 X125.257 Y108.236 E.00185
G1 X125.238 Y108.179 E.00185
G1 X125.225 Y108.12 E.00185
G1 X125.217 Y108.06 E.00185
G1 X125.214 Y108 E.00185
G1 X125.217 Y107.94 E.00185
G1 X125.225 Y107.88 E.00185
G1 X125.238 Y107.821 E.00185
G1 X125.257 Y107.764 E.00185
G1 X125.281 Y107.709 E.00185
G1 X125.309 Y107.656 E.00185
G1 X125.351 Y107.593 E.0023
G1 X125.364 Y107.577 E.00065
G1 X125.413 Y107.523 E.00225
G1 X125.458 Y107.482 E.00185
G1 X125.506 Y107.446 E.00185
G1 X125.557 Y107.414 E.00185
G1 X125.611 Y107.387 E.00185
G1 X125.667 Y107.364 E.00185
G1 X125.725 Y107.347 E.00185
G1 X125.784 Y107.336 E.00185
G1 X125.85 Y107.328 E.00205
G1 X125.895 Y107.327 E.00138
G1 X125.975 Y107.333 E.00245
G1 X126.02 Y107.34 E.00141
G1 X126.057 Y107.349 E.00116
G1 X126.128 Y107.373 E.00232
G1 X126.183 Y107.397 E.00185
G1 X126.236 Y107.426 E.00185
G1 X126.286 Y107.46 E.00185
G1 X126.337 Y107.501 E.00202
G1 X126.376 Y107.539 E.00166
G1 X126.415 Y107.584 E.00183
G1 X126.45 Y107.634 E.00189
G1 X126.483 Y107.69 E.00199
G1 X126.505 Y107.736 E.00154
G1 X126.527 Y107.798 E.00203
G1 X126.543 Y107.856 E.00185
G1 X126.553 Y107.916 E.00185
G1 X126.559 Y107.989 E.00228
G1 X126.559 Y108.011 E.00065
G1 X126.553 Y108.084 E.00228
G1 X126.543 Y108.144 E.00185
G1 X126.527 Y108.202 E.00185
G1 X126.507 Y108.259 E.00185
G1 X126.481 Y108.313 E.00185
G1 X126.451 Y108.365 E.00185
G1 X126.416 Y108.414 E.00185
G1 X126.376 Y108.46 E.00185
G1 X126.333 Y108.502 E.00185
